X:1
T:Ave Regina Caelorum
T:Giovanni Rovetta (1596-1668)
T:Ave Regina Caelorum
T:Salmi concertati a cinque et sei voci con doi violini. Opera prima. Venetia M DC XXXXI
T:(C) Wim Looyestijn - 2015. May be freely copied for non-commercial use.
T:(C) Wim Looyestijn - 2015. May be freely copied for non-commercial use.
T:(C) Wim Looyestijn - 2015. May be freely copied for non-commercial use.
T:(C) Wim Looyestijn - 2015. May be freely copied for non-commercial use.
T:(C) Wim Looyestijn - 2015. May be freely copied for non-commercial use.
T:(C) Wim Looyestijn - 2015. May be freely copied for non-commercial use.
T:(C) Wim Looyestijn - 2015. May be freely copied for non-commercial use.
T:(C) Wim Looyestijn - 2015. May be freely copied for non-commercial use.
T:(C) Wim Looyestijn - 2015. May be freely copied for non-commercial use.
C:Giovanni Rovetta (1596-1668)
Z:(C) Wim Looyestijn - 2015. May be freely copied for non-commercial use.
%%score [ 1 2 3 ] 4
L:1/8
Q:1/4=360
M:4/4
K:C
V:1 treble-8 nm="Tenore" snm="T"
V:2 treble-8 nm="Quinto" snm="Q"
V:3 bass nm="Basso" snm="B"
V:4 bass nm="BC" snm="Bc"
V:1
 z8 | z8 | z8 | z8 | z8 | z8 | d2 c2 B2 AG | A4 A4 | z2 d2 e2 ^cc | dB ed c4 | B4 B2 A2 | %11
w: ||||||A- ve, a- ve Re-|gi- na,|Re- gi- na,- Re-|gi- na cae- * lo-|rum. A- ve,|
 G2 ^FE A4 | A2 B2 c2 AA | BG cB A2 G2- | G2 ^F2 G4 | z8 | z8 | z8 | z8 | z2 dB ee/e/ ^cA | %20
w: a- ve Re- gi-|na, Re- gi- na, re-|gi- na cae- * lo- *|* * rum.|||||A- ve Do- mi- na an- ge|
 ddBG cc/c/ A^F | B2 B2 z2 d>e | c>d B>c A2 G2 | z8 | z8 | z8 | z2 A4 A2 | B3 c d<c c>B | c4 z4 | %29
w: lo- rum, a- ve Do- mi- na an- ge-|lo- rum. Sal- *|* * * * * ve,||||sal- ve,|ra- * * * * *|dix,|
 eeff ddee | ccdd BB c2 | A2 dd eecc | ddBB ccAA | B2 G2 z4 | z8 | d4 c4 | B4 A4 | z4 ^F2 ^G2 | %38
w: sal- ve ra- dix, sal- ve por- ta,|sal- ve ra- dix, sal- ve por-|ta, sal- ve ra- dix, sal- ve|por- ta, sal- ve ra- dix, sal- ve|por- ta,||ex qua|mun- do,|ex qua|
 A2 A2 G^F GE | ^F2 G4 F2 | G8 | z4 B4- | B2 B2 ^G4 | ^G4 z2 AA | A6 ^G2 | A8 | z8 | z8 | z8 | z8 | %50
w: mun- do lux * est *|or- * *|ta.|Gau-|* de Vir-|go glo- ri-|o- *|sa,|||||
 z8 | z2 d4 c2 | B>c A>B G>A ^F>A | G>A B>c A>B c>d | B/G/A/B/ c/B/c/A/ B c2 B | c2 cB AAAA | %56
w: |gau- de,|gau- * * * * * * *|||de, gau- de Vir- go glo- ri-|
 B4 c4 | z2 dc BBBB | ^c4 d2 DD | G2 E2 AA ^F2 | G2 EE ^F2 F2 | D4 E4 | ^F4 G4 | z2 AA G2 A2 | %64
w: o- sa,|gau- de Vir- go glo- ri-|o- sa, gau- de|Vir- go, gau- de Vir-|go glo- ri- o- sa,|su- per|om- nes|gau- de Vir- go,|
 BB G2 c2 AA | d4 G4 | z2 d4 c2 | B4 A4 | z2 GG A^FGA | BBAG ^F G2 F | G4 B4- | B2 BB B2 A^G | %72
w: gau- de Vir- go glo- ri-|o- sa|spe- ci-|o- sa,|su- per om- nes spe- ci-|o- sa, spe- ci- o- * *|sa. Va-|* le, o val- de de-|
 ^G4 G4 |[M:3/2] z12 | z12 | A2 B2 c2 d2 B2 c2 | A4 G2 F2 E4 | ^F2 G2 A2 B2 ^G4 | %78
w: co- ra,|||va- * le,- * o *|val- de * *|va- * le,- * o-|
 A2 E2 ^F2 G2 A2 ^G2 | B2 A2 A6 ^G2 |[M:4/4] A8 | z8 | DDDE ^F2 FG | %83
w: va- * de * * *|de- * co- *|ra.||Et pro- no- bis Chris- tum ex-|
 A/G/^F/G/ A/B/c/A/ B/A/G/A/ B/c/d/B/ | ^c d2 c d4 | z8 | z4 A2 AA | B2 B2 z4 | z2 dA B2 B2 | %89
w: o- * * * * * * * * * * * * * * *|* * * ra,||Chris- tum ex-|o- ra,|et pro- no- bis|
 z4 c2 AA | A3 ^G A2 ^F2 | ^F2 F2 G2 GG | G4 ^F4 | G16 |] %94
w: Chris- tum ex-|o- * ra, pro|no- bis Chris- tum ex-|o- *|ra.|
V:2
 z8 | z8 | d2 c2 B2 AG | A4 A4 | z2 d2 e2 ^cc | dB ed c4 | B2 z2 z4 | z8 | z8 | z8 | z4 d2 c2 | %11
w: ||A- ve, a- ve Re-|gi- na,|Re- gi- na,- Re-|gi- na cae- * lo-|rum.||||A- ve,|
 B2 AG ^F4 | ^F4 z2 d2 | e2 cc dB ed | c4 B4 | z8 | z8 | z8 | z2 dB ee/e/ ^cA | ddBG cc/c/ A^F | %20
w: a- ve Re- gi-|na, Re-|gi- na, re- gi- na cae- *|lo- rum.||||A- ve Do- mi- na an- ge|lo- rum, a- ve Do- mi- na an- ge-|
 B2 B2 z4 | z2 d>e c>d B>c | A2 G2 z4 | z2 G4 G2 | A3 B c<B B>A | B4 z4 | z8 | z8 | z2 ee ffdd | %29
w: lo- rum.|Sal- * * * * *|* ve,|sal- ve,|ra- * * * * *|dix,|||sal- ve ra- dix, sal- ve|
 eecc ddBB | c2 A2 z4 | d4 c4 | B4 A4 | ddee ccdd | BBcc AA B2 | A2 z2 z4 | z8 | B2 ^c2 d2 d2 | %38
w: por- ta, sal- ve ra- dix, sal- ve|por- ta,|ex qua|mun- do,|sal- ve ra- dix, sal- ve por- ta,|sal- ve ra- dix, sal- ve por-|ta,||ex qua mun- do|
 cB cA B4- | B2 G/A/B/c/ A4 | G8 | z4 d4- | d2 d2 B4 | B4 z2 AA | B8 | c2 e4 d2 | %46
w: lux * est * or-||ta.|Gau-|* de Vir-|go glo- ri-|o-|sa, gau- de,|
 c>d B>c A>B ^G>B | A>B c>d B>c d>e | ^c/A/B/c/ d/c/d/B/ c d2 c | d8 | z8 | z8 | z8 | z8 | %54
w: gau- * * * * * * *|||de,|||||
 z4 z2 GF | EEEE ^F4 | G4 z2 cB | AAAA B2 G2 | z4 AA d2 | B2 ee c2 d2 | BB c2 A4 | z4 GG c2 | %62
w: gau- de|Vir- go glo- ri- o-|sa, gau- de|Vir- go glo- ri- o- sa,|gau- de Vir-|go, gau- de Vir- go|glo- ri- o- sa,|gau- de Vir-|
 A2 dd B2 e2 | cc d2 B2 D2- | D2 E4 F2- | ^F2 G4 c2- | c2 B2 A4 | G4 z2 AA | BB^cc d4- | d2 cB A4 | %70
w: go, gau- de Vir- go|glo- ri- o- sa su-|* per om-|* nes spe-|* ci- o-|sa, su- per|om- nes spe- ci- o-||
 G4 d4- | d2 dd d2 cB | A4 A4 |[M:3/2] A2 B2 c2 d2 B2 c2 | A4 G2 F2 E4 | z12 | z12 | %77
w: sa. Va-|* le, o val- de de-|co- ra,|va- * le,- * o *|val- de * *|||
 A2 B2 c2 d2 B2 c2 | A2 G2 A2 B2 c2 B2 | d2 c2 B8 |[M:4/4] A8 | z8 | z8 | z8 | AAAE ^F2 FG | %85
w: va- * le,- * o- *|va- * de * * *|de- * co-|ra.||||Et pro- no- bis Chris- tum ex-|
 A/G/^F/G/ A/B/c/A/ B/A/G/A/ B/c/d/B/ | ^c d2 c d4 | z2 gd e2 e2 | z4 d2 dd | e6 cd | B4 A2 A2 | %91
w: o- * * * * * * * * * * * * * * *|* * * ra,|et pro- no- bis|Chris- tum ex-|o- ra, pro|no- bis, pro|
 A2 A2 B2 cd | A8 | G16 |] %94
w: no- bis Chris- tum ex-|o-|ra.|
V:3
 z8 | z8 | z8 | z8 | z8 | z8 | z8 | z8 | z8 | z8 | z8 | z8 | z8 | z8 | z4 z2 G,E, | %15
w: ||||||||||||||A- ve|
 A,A,/A,/ ^F,D, G,G,D,B,, | E,E,/E,/ ^C,A,, D,2 B,,2 | C,2 B,,2 A,,/B,,/C,/A,,/ D,/B,,/C,/D,/ | %18
w: Do- mi- na an- ge lo- rum, a- ve|Do- mi- na an- ge- lo- *||
 G,,4 G,E, A,A,/A,/ | ^F,D,G,G, E,B,, D,D,/D,/ | B,,B,,E,E, z4 | z8 | z2 D2 C>D B,>C | A,2 G,2 z4 | %24
w: rum. a- ve Do- mi- na|an- ge- lo- rum, a- ve Do- mi- na|an- ge- lo- rum.||Sal- * * * *|* ve,|
 z8 | z2 E,4 E,2 | ^F,3 G, A,<G, G,>F, | G,4 z4 | z4 z2 B,B, | CCA,A, B,B,G,G, | %30
w: |sal- ve,|por- * * * * *|ta,|sal- ve|ra- dix, sal- ve por- ta, sal- ve|
 A,A,^F,F, G,2 E,2 | z8 | z8 | G,4 F,4 | E,4 D,4 | z2 G,G, A,A,^F,F, | G,G,E,E, F,F,D,D, | %37
w: ra- dix, sal- ve por- ta,|||ex qua|mun- do,|sal- ve ra- dix, sal- ve|por- ta, sal- ve ra- dix, sal- ve|
 E,4 D,4 | A,,2 A,,2 E,2 E,2 | D,C, D,B,, C,2 D,2 | G,,8 | z4 G,4- | G,2 B,,2 E,4 | E,4 z2 ^C,C, | %44
w: por- ta,|ex qua mun- do|lux * est * or- *|ta.|Gau-|* de Vir-|go glo- ri-|
 D,3 C, B,,4 | A,,8 | z8 | z8 | z2 A,4 G,2 | F,>G, E,>F, D,>E, ^C,>E, | D,>E, F,>G, E,>F, G,>A, | %51
w: o- * *|sa,|||gau- de,|gau- * * * * * * *||
 ^F,/D,/E,/F,/ G,/F,/G,/E,/ F, G,2 F, | G,2 z2 z4 | z8 | z8 | z8 | z2 G,F, E,E,E,E, | ^F,4 G,4 | %58
w: |de,||||gau- de Vir- go glo- ri-|o- sa,|
 z2 A,,A,, D,2 B,,2 | E,E, C,2 F,2 D,D, | E,4 D,4 | z2 G,,G,, C,2 A,,2 | D,D, B,,2 E,2 C,C, | %63
w: gau- de Vir- go|gau- de Vir- go glo- ri-|o- sa,|gau- de Vir- go,|gau- de Vir- go glo- ri-|
 F,2 D,2 z4 | G,,4 A,,4 | B,,4 C,4 | D,8 | z2 G,4 F,2 | E,4 D,2 D,D, | B,,B,,C,C, D,4 | %70
w: o- sa|su- per|om- *|nes|spe- ci-|o- sa, su- per|om- nes spe- ci- o-|
 G,,2 G,4 G,G, | ^G,6 A,A, | E,4 E,4 |[M:3/2] z12 | z12 | z12 | z12 | z12 | z12 | z12 | %80
w: sa. Va- le, o|val- de de-|co- ra.||||||||
[M:4/4] A,,A,,A,,B,, C,2 C,D, | E,/D,/C,/D,/ E,/F,/G,/E,/ ^F,/E,/D,/E,/ F,/G,/A,/F,/ | %82
w: Et pro- no- bis Chris- tum ex-|o- * * * * * * * * * * * * * * *|
 G,2 ^F,>E, D,4 | z8 | z8 | z8 | z2 A,E, ^F,2 F,2 | z4 C,2 C,C, | D,2 D,2 z4 | %89
w: * * * ra,||||et pro- no- bis|Chris- tum ex-|o- ra,|
 z2 C,^G,, A,,B,,C,A,, | E,4 A,,2 D,2 | D,2 C,2 B,,2 A,,G,, | D,8 | G,,16 |] %94
w: et pro- no- * * *|* bis pro|no- bis Chris- tum ex-|o-|ra.|
V:4
 G,,2 A,,2 B,,2 C,2 | D,2 E,2 C,2 D,2 | G,2 A,2 G,2 E,2 | D,2 E,2 ^F,2 G,2 | A,2 ^F,2 G,2 A,2 | %5
w: |||||
 ^F,2 G,2 E,2 F,2 | G,2 A,2 G,2 E,2 | D,2 E,2 ^F,2 G,2 | A,2 ^F,2 G,2 A,2 | ^F,2 G,2 E,2 F,2 | %10
w: |||||
 G,4 G,,2 A,,2 | B,,2 C,2 D,2 E,2 | ^F,2 G,2 A,2 F,2 | G,2 A,2 D,2 B,,2 | C,2 A,,2 G,,2 G,E, | %15
w: ||* * b *||* 6# * * *|
 A,2 C,2 G,2 B,,2 | E,2 A,,2 D,2 B,,2 | C,2 B,,2 A,,2 D,2 | G,,2 G,2 E,2 A,2 | ^F,2 G,2 C,2 D,2 | %20
w: * * * 6||* * b *|* * 6 *||
 B,,2 E,2 C,2 D,2 | G,,2 B,,2 C,2 G,,2 | A,,2 B,,2 C,2 G,,2 | D,2 G,,2 C,2 B,,2 | %24
w: 6 * * *||||
 A,,2 ^G,,2 A,,2 F,,2 | E,,2 E,2 ^C,2 A,,2 | D,2 D,2 C,2 D,2 | G,,2 E,2 F,2 G,2 | C,2 C2 A,2 B,2 | %29
w: |||||
 C2 A,2 B,2 G,2 | A,2 ^F,2 G,2 E,2 | D,2 B,,2 C,2 A,,2 | G,,2 E,2 C,2 D,2 | G,,2 E,2 F,2 D,2 | %34
w: * 6 * 6|* 6 * 6||||
 E,2 C,2 D,2 G,,2 | D,2 G,2 A,2 ^F,2 | G,2 E,2 F,2 D,2 | E,2 A,,2 D,2 B,,2 | A,,2 A,,2 E,2 E,2 | %39
w: |||* * * 6#||
 D,2 B,,2 C,2 D,2 | G,,8 | z4 G,4- | G,2 B,,2 E,4 | E,4 z2 ^C,2 | D,4 B,,4 | A,,8 | %46
w: |||* 6 #||* 7 6||
 A,2 G,2 F,2 E,2 | A,,4 ^G,,4 | A,,8 | D,6 A,,2 | D,4 ^C,4 | D,8 | G,2 F,2 E,2 D,2 | G,,4 ^F,,4 | %54
w: ||||||||
 G,,8 | C,4 D,4 | G,,2 G,2 E,4 | ^F,4 G,4 | A,2 A,,2 D,2 B,,2 | E,2 C,2 F,2 D,2 | E,4 D,4 | %61
w: ||||* * * 6|||
 G,,4 C,2 A,,2 | D,2 B,,2 E,2 C,2 | F,2 D,2 G,2 D,2 | G,,4 A,,4 | B,,4 C,4 | D,8 | G,,2 G,4 F,2 | %68
w: |* 6 * *||5 6 5 6|5 6 *|||
 E,4 D,4 | B,,2 C,2 D,4 | G,,4 G,4 | ^G,6 A,2 | E,8 |[M:3/2] A,,4 A,,4 E,4 | A,,12 | %75
w: |||5 *|#|||
 A,,4 A,,4 E,4 | A,,12 | D,4 A,,4 E,4 | A,,8 A,4 | D,4 E,8 |[M:4/4] A,,6 B,,2 | C,4 D,4 | %82
w: ||# * *|||||
 G,,4 D,4- | D,4 G,,4 | A,,4 D,4- | D,4 G,,4 | A,,4 D,4 | G,,4 C,4 | D,4 G,,4 | C,3 ^G,, A,,4 | %90
w: ||||||||
 E,4 A,,2 D,2- | D,2 C,2 B,,2 A,,G,, | D,8 | G,,16 |] %94
w: * * #||||

